X:1
T: W.M.F. McHardy, Forgue
T: The Iron Man
C:J. Scott Skinner
R:Strathspey
Q: 128
K:A
M:4/4
L:1/16
|:E2|A4 c3A B3G A3B|c4 e3c d3B c3e|f4 d3f e4 c3e|((3d2c2B2) ((3c2B2A2) GB3 B3c|
A4 c3A B3G A3B|c4 e3c d3B ce3|f4 d3f ea3 c3A|((3B2c2d2) ((3d2c2B2) cA3 A2g2|
a3A g3A f3A e3A|cBA2 e3g a3e c3A|d3E c3E B3E c3E|dcB2 cBA2 ((3B2c2d2) ((3e2f2g2) |
a3A g3A f3A e3A|cBA2 e3g a3e c3A|d4 f3d eag2 fed2|cBA2 GAB2 A4 A2:|
